www/assets/icons/output.svg

<svg width="24" height="24" viewBox="0 0 24 24" xmlns="http://www.w3.org/2000/svg" fill='currentColor'><path d="M16.5 17L21.5 12L16.5 7L15.09 8.41L17.67 11H8.5V13H17.67L15.09 15.59L16.5 17Z"/><path d="M18.5 19H4.5V5H18.5V7H20.5V5C20.5 3.9 19.61 3 18.5 3H4.5C3.4 3 2.5 3.9 2.5 5V19C2.5 20.1 3.4 21 4.5 21H18.5C19.61 21 20.5 20.1 20.5 19V17H18.5V19Z"/></svg>

<svg xmlns="http://www.w3.org/2000/svg" width="24" height="24" viewBox="0 0 24 24" fill='currentColor'><path d="m16.5 17 5-5-5-5-1.41 1.41L17.67 11H8.5v2h9.17l-2.58 2.59z"/><path d="M18.5 19h-14V5h14v2h2V5a2 2 0 0 0-2-2h-14c-1.1 0-2 .9-2 2v14c0 1.1.9 2 2 2h14a2 2 0 0 0 2-2v-2h-2z"/></svg>
